svgs/solid/folder-medical.svg

<svg xmlns="http://www.w3.org/2000/svg" viewBox="0 0 512 512"><!--! Font Awesome Pro 6.6.0 by @fontawesome - https://fontawesome.com License - https://fontawesome.com/license (Commercial License) Copyright 2024 Fonticons, Inc. --><path d="M448 480L64 480c-35.3 0-64-28.7-64-64L0 96C0 60.7 28.7 32 64 32l128 0c20.1 0 39.1 9.5 51.2 25.6l19.2 25.6c6 8.1 15.5 12.8 25.6 12.8l160 0c35.3 0 64 28.7 64 64l0 256c0 35.3-28.7 64-64 64zM224 208l0 48-48 0c-8.8 0-16 7.2-16 16l0 32c0 8.8 7.2 16 16 16l48 0 0 48c0 8.8 7.2 16 16 16l32 0c8.8 0 16-7.2 16-16l0-48 48 0c8.8 0 16-7.2 16-16l0-32c0-8.8-7.2-16-16-16l-48 0 0-48c0-8.8-7.2-16-16-16l-32 0c-8.8 0-16 7.2-16 16z"/></svg>

<svg xmlns="http://www.w3.org/2000/svg" viewBox="0 0 512 512"><!--! Font Awesome Pro 6.4.0 by @fontawesome - https://fontawesome.com License - https://fontawesome.com/license (Commercial License) Copyright 2023 Fonticons, Inc. --><path d="M448 480H64c-35.3 0-64-28.7-64-64V96C0 60.7 28.7 32 64 32H192c20.1 0 39.1 9.5 51.2 25.6l19.2 25.6c6 8.1 15.5 12.8 25.6 12.8H448c35.3 0 64 28.7 64 64V416c0 35.3-28.7 64-64 64zM224 208v48H176c-8.8 0-16 7.2-16 16v32c0 8.8 7.2 16 16 16h48v48c0 8.8 7.2 16 16 16h32c8.8 0 16-7.2 16-16V320h48c8.8 0 16-7.2 16-16V272c0-8.8-7.2-16-16-16H288V208c0-8.8-7.2-16-16-16H240c-8.8 0-16 7.2-16 16z"/></svg>
